X:48
T:Polska ur Petter Dufvas notbok (Ma6-48)
R:Polska
O:Verkelbäck, Småland
B:Petter Dufvas notbok
S:Petter Dufva
N:Smus Ma6 bild 50
M:3/4
L:1/8
K:D
Fd Ec d2|Fd Ec d2|fe/f/ gfed|ed cBAG|
Fd Ec d2|Fd Ec d2|fe/f/ gfed|Ad/c/ d2D2:|
|:ca B^g a2|ca B^g a2|fe/f/ gfed|ed cBAG|
Fd Ec d2|Fd Ec d2|fe/f/ gfed|Ad/c/ d2D2:|

